!!! OTL: Berkowitz450
!!! Chapter: 1
!!! Section: IV
!!! Page: 112
!!! Mode: 
!!! Encoder: DJB
**kern
*staff1
*I"Piano
=1-
*clefC4
*k[f#]
*e:
*M4/4
[4E/
8.E/L]
16G/Jk
[4B\
8.B\L]
16e\Jk
=2
4.d#\
16e\LL
16f#\JJ
2B\
=3
[4A\
16A/LL]
16G/
16F#/
16A/JJ
8.G/L
16F#/Jk
8.E/L
16F#/Jk
=4
8G/L
8G#/
8A/
8A#/J
2B\
=5
4.c\
8A\
8.F#/L
16D/Jk
8.F#/L
16A/Jk
=6
4.B\
8G/
8.E/L
16C/Jk
8.E/L
16G/Jk
=7
!!linebreak:original
[4A\
16A/LL]
16G/
16F#/
16A/JJ
8.G/L
16F#/Jk
8E/L
8G/J
=8
4.B\
8BB/
4E/
4r
==
*-
